X:28
T: The Suit of Green, S. 86
N: I0527
O: Irland
S: O BOYLE, Sean: 25 Irish Folksongs, Dublin 1976]
N: "Ballads and Rebel Songs"
R: Ballade, politisches Lied]
M: 4/4
L: 1/16
K: C
G3G | c6c2B4B4 | A6F2D4E2F2 | G6B2A2G2E2D2 | C6C2C6
E2 | G6E2D4E4 | G6E2D4B2c2 | d4B2d2c2B2A2G2 | F2E2D2E2D4z2
E2 | F2G4E2D4E4 | G6E2D4B2c2 | d4B2d2c2B2A2G2 | F2E2D2E2D4z
G2 | c4B2c2d4c2B2 | A6F2D4E2F2 | G6B2A2G2E2D2 | C6C2C4

